X:1
T:So vil man Wasserwellen
T:Valentin Haussmann ca 1560-ca1613
T:Source : Tricinia---Johann-Jacob Gastoldi und anderer Autorn---Nürnberg---P.Kauffmann---1607. Editor : André Vierendeels (25/03/17).
T:So vil man Wasserwellen
T:©
T:©
T:©
C:Valentin Haussmann
C:ca 1560-ca1613
Z:©
%%score [ 1 2 3 ]
L:1/8
Q:1/4=100
M:4/4
K:F
V:1 treble nm="Soprano 1" snm="S 1"
V:2 treble nm="Soprano 2" snm="S 2"
V:3 treble-8 nm="Tenor" snm="T"
V:1
"^1)" G4 d3 e | f2 d2 d2 cB | c4 c4 | z4 z2 d2 | g2 f2 _e2 d2 | c2 d2 _e4 | d4 z4 | z2 G2 c2 B2 | %8
w: So vil man|Was- ser wel- * *|* len|im|wil- den Meer kan|zeh- * *|len,|in wil- den|
w: So vil bey|Gott sind se- * *|* lig,|und|in der Höl- le|trau- * *|rig,|do vil in|
 A2 B2 A4 |1[M:2/4] =B4 :|2 =B4 |:[M:4/4] z2 d2 c2 B2 | A2 A2 G4 | z4 z2 B2 | c4 d4 | _e3 d c2 d2 | %16
w: Meer kan zeh-|len,|len,|so vil auff|grü- nen Land,|so|vil auff|grü- * * nen|
w: der ge- *|stallt,|stallt,|sind le- bend|jung und alt,|sind|le- bend|jung- * * und|
 G2 d2 e4 | f4 g3 f |"^-natural" e2 f2 B4 | z2 a2 g2 f2 | e2 e2 ^f4 | z2 A2 d2 =B2 | c2 A2 =B4 | %23
w: Land, so vil|auff grü- *|* nen Land,|man Grasz und|Blüm- lein fand,|so vil musz|lei- den schmerz,|
w: alt, sind le-|bend jung _|_ und alt,|so man- che|ta- ge- schein,|musz ich ge-|pei- nigt sein|
 z2 G2 d2 d2 | d2 cB A2 A2 | G8 :| %26
w: mein sehr be-|trüb- * * * tes|Hertz.|
w: musz ich ge-|pei- * * * nigt|sein,|
V:2
"^2)""^1)" z4 z2 B2 | F3 G A2 B2 | A4 A2 A2 | d3 c B2 A2 | G2 AB c2 B2 | A2 B4 A2 | B2 F2 c2 B2 | %7
w: So|vil man Was- ser|wel- len im|wil- den Meer kan|zeh- * * * *||len, im wil- den|
w: Ge-|gen dem klein- sten|din- ge, ist|eu- * * re|Lieb _ _ _ ge-|rin- * *|ge, ist eu- re|
 A2 D2 EFGD | ^F2 G4 F2 |1[M:2/4] G4 :|2 G2 d2 |:[M:4/4] c2 B2 A2 G2 | ^F3 d c2 B2 | A2 A2 G4 | %14
w: Meer kan zeh- * * *||len,|len, so|vil auff grü- nen|Land, so vil auff|grü- nen Land,|
w: Lieb ge- rin- * * *||ge,|ge, a-|ber die Lie- be|mein, a- ber die|Lie- be mein,|
 z4 z2 F2 | G4 A4 | B3 F G2 A2 | D8 | z2 a2 g2 f2 | e2 f3 e d2- | d2 ^c2 d4 | %21
w: so|vil auff|grü- * * nen|Land,|man Grasz und|Blüm- * * *|* lein fand,|
w: a-|ber die|Lie- * * be|mein,|ge- gen euch,|ist nicht _ _|_ _ klein,|
"^-natural" z2 F2 D2 G2 | E2 ^F2 G2 G2 |"^b" B2 B2 B2 AG | ^F2 G3 F F2 | G8 :| %26
w: so vil musz|lei- den schmerz, mein|sehr be- trüb- * *|* * * tes|Hertz,|
w: die Welt wie-|get gar schwer, die|Welt wie- get _ _|_ _ _ gar|schwer.|
V:3
"^3)""^1)" z4 z2 g2 | d3 e f2 g2 | f4 f4 | z2 d2 g2 f2 | _e2 d2 c2 de | f2 _ed c4 | B4 z2 G2 | %7
w: So|vil man Was- ser|wel- len|im wil- den|Meer kan zeh- * *||len, im|
 c2 B2 A2 G2 | d8 |1[M:2/4] G4 :|2 G4 |:[M:4/4] z2 B2 c4 | d4 _e3 d | c2 d2 G2 g2 | %14
w: wil- den Meer kan|zeh-|len,|len,|so vil|auff grü- *|* nen Land, man|
"^b" f2 e2 d2 d2 | c4 z2 f2 | _e2 d2 c4 | B3 A G4 | A2 F2 G4 | A4 B3 A | G2 A2 D4 | z2 d2 B2 G2 | %22
w: Grasz und Blüm- lein|fand, man|Grasz und Blüm-|* lein fand,|man Grasz und|Blüm- * *|* lein fand,|so vil musz|
 c2 d2 G2 G2 | g2 g2 g2 fe | d4 d4 | G8 :| %26
w: lei- den schmerz, mein|sehr be- trüb- * *|* tes|Hertz.|

